X: 305701
M: 6/8
L: 1/8
K: F
g |\
ggg gec | gAB c2c | BBB ABA | GGG G2z |\
cBA GFE | FEF DEF | GA=B cEG | FED "^D.C."C2 |]


